Default.style/quarry.svg

<svg xmlns="http://www.w3.org/2000/svg" width="31" height="29" viewBox="0 0 31 29">
  <path fill="gray" d="M8.10517795,0.565704294 C8.21985266,0.471354292 8.38742091,0.47948195 8.49242618,0.584487215 L8.49242618,0.584487215 L12.5308866,4.62294761 C12.6546003,4.74666131 12.6405867,4.95113539 12.5011517,5.05681429 C11.4754201,5.83422424 10.5025073,6.66154462 9.57935716,7.53950923 L15.7879853,13.7479972 L21.7759853,7.75999719 L19.0460154,5.03089372 C18.9494573,4.93433554 18.9356632,4.78635431 19.0046334,4.67510384 L19.0460154,4.62294761 L23.0844758,0.584487215 C23.197127,0.471836008 23.3797707,0.471836008 23.4924219,0.584487215 L23.4924219,0.584487215 L30.4154969,7.50756218 C30.4695939,7.5616592 30.4999853,7.6350305 30.4999853,7.71153524 L30.4999853,7.71153524 L30.4999853,11.7499956 C30.4999853,11.9093085 30.3708367,12.0384571 30.2115239,12.0384571 L30.2115239,12.0384571 L26.1730635,12.0384571 C26.0965587,12.0384571 26.0231874,12.0080657 25.9690904,11.9539687 L25.9690904,11.9539687 L23.8159853,9.79999719 L17.8279853,15.7879972 L28.3467746,26.307049 L26.307044,28.3467796 L15.7879853,17.8279972 L5.26985799,28.3467796 L3.23012747,26.307049 L13.7479853,15.7879972 L7.57396346,9.61304395 C6.83472522,10.4435924 6.13139743,11.3128817 5.46196833,12.221395 L5.0621684,12.7743056 C4.96136883,12.9163601 4.75862413,12.9373533 4.63085709,12.8189658 L4.63085709,12.8189658 L0.592396688,9.07697278 C0.490353151,8.98242036 0.470330413,8.82850767 0.544785973,8.71099422 C2.36627964,5.83612471 4.77560167,3.30515346 8.10517795,0.565704294 Z"/>
</svg>

<svg xmlns="http://www.w3.org/2000/svg" width="31" height="29"><path fill="gray" d="M8.105.566a.288.288 0 0 1 .387.018l4.039 4.039a.288.288 0 0 1-.03.434A34.282 34.282 0 0 0 9.58 7.54l6.209 6.208 5.988-5.988-2.73-2.73a.289.289 0 0 1-.041-.355l.041-.052L23.084.584a.288.288 0 0 1 .408 0l6.923 6.924a.288.288 0 0 1 .085.204v4.038c0 .16-.13.288-.288.288h-4.039a.288.288 0 0 1-.204-.084L23.816 9.8l-5.988 5.988 10.519 10.519-2.04 2.04-10.519-10.519L5.27 28.347l-2.04-2.04 10.518-10.519-6.174-6.175c-.74.83-1.443 1.7-2.112 2.608l-.4.553a.288.288 0 0 1-.431.045L.592 9.077a.288.288 0 0 1-.047-.366c1.821-2.875 4.23-5.406 7.56-8.145Z"/></svg>
